16/panel/network-cellular-secure-signal-none.svg

<svg height="16.004" width="16" xmlns="http://www.w3.org/2000/svg"><g fill="#ffffff"><path d="M13.5 0c-.277 0-.5.223-.5.5v7.504c.774 0 1.47.31 2 .8V.5c0-.277-.223-.5-.5-.5h-1zm-3 3c-.277 0-.5.223-.5.5v7.504h.014A3.044 3.044 0 0 1 12 8.19V3.5c0-.277-.223-.5-.5-.5h-1zm-3 3c-.277 0-.5.223-.5.5v8c0 .277.223.5.5.5h1c.277 0 .5-.223.5-.5v-8c0-.277-.223-.5-.5-.5h-1zm-3 3c-.277 0-.5.223-.5.5v5c0 .277.223.5.5.5h1c.277 0 .5-.223.5-.5v-5c0-.277-.223-.5-.5-.5h-1zm-3 3c-.277 0-.5.223-.5.5v2c0 .277.223.5.5.5h1c.277 0 .5-.223.5-.5v-2c0-.277-.223-.5-.5-.5h-1zm9.5 1.004V15h.5c.277 0 .5-.223.5-.5v-1.496h-1zm2 0V14.5c0 .277.223.5.5.5h1c.277 0 .5-.223.5-.5v-1.496h-2z" style="marker:none" color="#ffffff" overflow="visible" opacity=".35"/><path d="M13 9.004c-1.108 0-2 .91-2 2.031v.969h-1v4h6v-4h-1v-.969c0-1.12-.892-2.031-2-2.031zm0 1c.554 0 1 .442 1 1v1h-2v-1c0-.558.446-1 1-1z" style="marker:none" color="#000" overflow="visible"/></g></svg>

<svg xmlns="http://www.w3.org/2000/svg" width="16" height="16" version="1.1">
 <defs>
  <style id="current-color-scheme" type="text/css">
   .ColorScheme-Text { color:#dfdfdf; } .ColorScheme-Highlight { color:#4285f4; } .ColorScheme-NeutralText { color:#ff9800; } .ColorScheme-PositiveText { color:#4caf50; } .ColorScheme-NegativeText { color:#f44336; }
  </style>
 </defs>
 <path style="opacity:0.3;fill:currentColor" class="ColorScheme-Text" d="M 15,1.01 1,15.01 H 9 V 11.01 H 10.01 C 10.03,9.37 11.36,8.01 13,8.01 13.77,8.01 14.47,8.32 15,8.81 Z"/>
 <path style="fill:currentColor" class="ColorScheme-Text" d="M 13,9 C 11.89,9 11,9.91 11,11.03 V 12 H 10 V 16 H 16 V 12 H 15 V 11.03 C 15,9.91 14.11,9 13,9 Z M 13,10 C 13.55,10 14,10.44 14,11 V 12 H 12 V 11 C 12,10.44 12.45,10 13,10 Z"/>
</svg>
